X:2
T:My Darling Asleep
R:jig
E:10
M:6/8
I:speed 350
K:D
e|fdd cAA|BAG A2G|FAA def|gfg eag|\
fdd cAA|BAG A2G|FAA def|gec d2:|*
A|FAA ABA|FAA BAG|FAA def|gfg eag|\
fdd cAA|BAG A2G|FAA def|gec d2:|**
<end>
<start>
